!!!OTL: Graf und Nonne (Die Nonne)
!!!OTL-incipit:Einst stand ich auf hohem Berge
!!!ARE: Europa, Mitteleuropa, Deutschland (BRD), Nordrhein - Westfalen, Siegkreis,
!!    Soeven
!!!YOR: 8, S. 294
!!    1925 aufgezeichnet
!!!SCT: Q0155Y.
!!!TXL: @@DE
!!!YEM: Copyright 1995, estate of Helmut Schaffrath.
**kern	**text
*ICvox	*
*M6/8	*
*k[f#]	*
*G:	*
{8dd	Einst
=1	=1
8.ddL	stand
16dd	ich
8ddJ	auf
4dd	ho-
8dd	-hem
=2	=2
4.b	Ber-
4b}	-ge
{8b	und
=3	=3
8.ccL	schau-
16cc	-te
8ccJ	ins
(8ccL	tie-
8dd)	.
8eeJ	-fe
=4	=4
4.dd	Tal
4r}	.
{8dd	da
=5	=5
8ddL	sah
8ee	ich
8ff#J	ein
(8ggL	Schiff-
8ff#)	.
8eeJ	-lein
=6	=6
(8.eeL	schwim-
16ddJ	.
16ccL	.
16ddJ)	.
4b}	-men,
{8dd	wo-
=7	=7
8ddL	-rin-
8ee	-nen
8ddJ	drei
(8ccL	Rei-
8a)	.
8ddJ	-ter
=8	=8
4.b	warn.
4r}	.
==	==
!!!AGN: Ballade, Standesunterschied, vergebliche Werbung, Liebe, Klage
!! Stark "zersungene" Fassung.
!!!ONB: ESAC (Essen Associative Code) Database: BALLADE
!!!AMT: compound duple
!!!AIN: vox
!!!EED: Helmut Schaffrath
!!!EEV: 1.0
!!!source: Deutsche Volkslieder mit ihren Melodien. Herausgegeben vom Deutschen Volksliedarchiv. Achter Teil. Freiburg/Breisgau 1988.
!!!page: 294
!!!ENC: Anna Maria Matuszewska
!!!EEV: 2025/03/10
*-	*-
